svg/misc/sun.svg

<svg width="512" height="512" viewBox="0 0 512 512" version="1.1" xmlns="http://www.w3.org/2000/svg"><path fill="currentColor" d="M224,480l0,-50.902c10.377,1.906 21.072,2.902 32,2.902c10.928,0 21.623,-0.996 32,-2.902l0,50.902c0,17.673 -14.327,32 -32,32c-17.673,0 -32,-14.327 -32,-32Zm162.108,-37.324l-37.181,-37.18c18.296,-11.397 34.347,-26.059 47.339,-43.171l35.096,35.096c12.497,12.497 12.497,32.758 0,45.255c-12.496,12.497 -32.758,12.497 -45.254,0Zm-316.784,-56.568l37.18,-37.181c11.397,18.296 26.059,34.347 43.171,47.339l-35.096,35.096c-12.497,12.497 -32.759,12.497 -45.255,0c-12.497,-12.496 -12.497,-32.758 0,-45.254Zm186.676,-2.108c70.692,0 128,-57.308 128,-128c0,-70.692 -57.308,-128 -128,-128c-70.692,0 -128,57.308 -128,128c0,70.692 57.308,128 128,128Zm224,-96l-50.902,0c1.906,-10.377 2.902,-21.072 2.902,-32c0,-10.928 -0.996,-21.623 -2.902,-32l50.902,0c17.673,0 32,14.327 32,32c0,17.654 -14.297,31.97 -32,32Zm-397.098,0l-50.902,0c-17.673,0 -32,-14.327 -32,-32c0,-17.673 14.327,-32 32,-32l50.902,0c-1.906,10.377 -2.902,21.072 -2.902,32c0,10.907 0.992,21.583 2.902,32Zm31.677,-207.363l35.096,35.097c-17.112,12.992 -31.774,29.043 -43.171,47.339l-37.18,-37.181c-12.497,-12.497 -12.497,-32.758 0,-45.255c12.497,-12.496 32.758,-12.496 45.255,0Zm316.783,33.942l-35.096,35.096c-12.992,-17.112 -29.043,-31.774 -47.339,-43.171l37.181,-37.18c12.496,-12.497 32.758,-12.497 45.254,0c12.497,12.496 12.497,32.758 0,45.255Zm-143.362,-82.579c0,-17.673 -14.327,-32 -32,-32c-17.673,0 -32,14.327 -32,32l0,50.902c10.377,-1.906 21.072,-2.902 32,-2.902c10.928,0 21.623,0.996 32,2.902l0,-50.902Z"></path></svg>

<svg width="512" height="512" viewBox="0 0 512 512" fill="none" xmlns="http://www.w3.org/2000/svg">
<path d="M288 32C288 14.3269 273.673 0 256 0C238.327 -2.17128e-06 224 14.3269 224 32V82.902C234.377 80.9959 245.072 80 256 80C266.928 80 277.623 80.9959 288 82.902V32Z" fill="black"/>
<path d="M114.579 80.6374L149.675 115.734C132.563 128.726 117.901 144.777 106.504 163.073L69.3238 125.892C56.827 113.395 56.827 93.1342 69.3238 80.6374C81.8205 68.1406 102.082 68.1406 114.579 80.6374Z" fill="black"/>
<path d="M32 224H82.902C80.9959 234.377 80 245.072 80 256C80 266.928 80.9959 277.623 82.902 288H32C14.3269 288 0 273.673 0 256C0 238.327 14.3269 224 32 224Z" fill="black"/>
<path d="M69.3238 386.108L106.504 348.927C117.901 367.223 132.563 383.274 149.675 396.266L114.579 431.362C102.082 443.859 81.8205 443.859 69.3238 431.362C56.827 418.866 56.827 398.604 69.3238 386.108Z" fill="black"/>
<path d="M224 480V429.098C234.377 431.004 245.072 432 256 432C266.928 432 277.623 431.004 288 429.098V480C288 497.673 273.673 512 256 512C238.327 512 224 497.673 224 480Z" fill="black"/>
<path d="M386.108 442.676L348.927 405.496C367.223 394.099 383.274 379.437 396.266 362.325L431.362 397.421C443.859 409.918 443.859 430.179 431.362 442.676C418.866 455.173 398.604 455.173 386.108 442.676Z" fill="black"/>
<path d="M480 288H429.098C431.004 277.623 432 266.928 432 256C432 245.072 431.004 234.377 429.098 224H480C497.673 224 512 238.327 512 256C512 273.673 497.673 288 480 288Z" fill="black"/>
<path d="M431.362 114.579L396.266 149.675C383.274 132.563 367.223 117.901 348.927 106.504L386.108 69.3237C398.604 56.827 418.866 56.827 431.362 69.3238C443.859 81.8205 443.859 102.082 431.362 114.579Z" fill="black"/>
<path d="M256 384C326.692 384 384 326.692 384 256C384 185.308 326.692 128 256 128C185.308 128 128 185.308 128 256C128 326.692 185.308 384 256 384Z" fill="black"/>
</svg>
